X: 1
T: Jenny Picking Cockles
R: reel
M: 4/4
L: 1/8
Z: Contributed 2015-12-09 16:33:59 by ceili j124019@trbvm.com
K: Dmix
|:Addc AGEF|GEcE dEcE|Addc AGEF|GEcE ED D2
|Addc AGEF|G2AB c2cd|ecdc AGEF|GEcE ED D2:|
|f2 fd e2 ed|cAAB cdeg|f2 fd e2 ed|eaag edd e
|~f2 fd ~e2 ed|cAAB c3 d|eddc AGEF|GEcE ED D2:|

